img/more.svg

<svg width="16" height="16" viewBox="0 0 16 16" fill="none" xmlns="http://www.w3.org/2000/svg">
<mask id="mask0_1602_55741" style="mask-type:alpha" maskUnits="userSpaceOnUse" x="1" y="1" width="14" height="14">
<path fill-rule="evenodd" clip-rule="evenodd" d="M1.33301 1.3335H14.6663V14.6668H1.33301V1.3335Z" fill="white"/>
</mask>
<g mask="url(#mask0_1602_55741)">
<path fill-rule="evenodd" clip-rule="evenodd" d="M5.10901 2.3335C3.42301 2.3335 2.33301 3.48883 2.33301 5.2775V10.7228C2.33301 12.5115 3.42301 13.6668 5.10901 13.6668H10.8877C12.5757 13.6668 13.6663 12.5115 13.6663 10.7228V5.2775C13.6663 3.48883 12.5757 2.3335 10.889 2.3335H5.10901ZM10.8877 14.6668H5.10901C2.85034 14.6668 1.33301 13.0815 1.33301 10.7228V5.2775C1.33301 2.91883 2.85034 1.3335 5.10901 1.3335H10.889C13.1483 1.3335 14.6663 2.91883 14.6663 5.2775V10.7228C14.6663 13.0815 13.1483 14.6668 10.8877 14.6668Z" fill="#FC6733"/>
</g>
<path fill-rule="evenodd" clip-rule="evenodd" d="M7.99609 11.1667C7.72009 11.1667 7.49609 10.9427 7.49609 10.6667V8C7.49609 7.724 7.72009 7.5 7.99609 7.5C8.27209 7.5 8.49609 7.724 8.49609 8V10.6667C8.49609 10.9427 8.27209 11.1667 7.99609 11.1667Z" fill="#FC6733"/>
<path fill-rule="evenodd" clip-rule="evenodd" d="M7.9991 6.13607C7.63043 6.13607 7.3291 5.83807 7.3291 5.4694C7.3291 5.10073 7.62443 4.80273 7.99244 4.80273H7.9991C8.36777 4.80273 8.66577 5.10073 8.66577 5.4694C8.66577 5.83807 8.36777 6.13607 7.9991 6.13607Z" fill="#FC6733"/>
</svg>

<svg width="16" height="16" viewBox="0 0 16 16" fill="none" xmlns="http://www.w3.org/2000/svg"><mask id="a" style="mask-type:alpha" maskUnits="userSpaceOnUse" x="1" y="1" width="14" height="14"><path fill-rule="evenodd" clip-rule="evenodd" d="M1.333 1.333h13.333v13.334H1.333V1.334z" fill="#fff"/></mask><g mask="url(#a)"><path fill-rule="evenodd" clip-rule="evenodd" d="M5.109 2.333c-1.686 0-2.776 1.156-2.776 2.944v5.446c0 1.788 1.09 2.944 2.776 2.944h5.779c1.688 0 2.778-1.155 2.778-2.944V5.277c0-1.788-1.09-2.944-2.777-2.944h-5.78zm5.779 12.334H5.109c-2.259 0-3.776-1.585-3.776-3.944V5.277c0-2.358 1.517-3.944 3.776-3.944h5.78c2.26 0 3.777 1.586 3.777 3.944v5.446c0 2.358-1.518 3.944-3.778 3.944z" fill="#FC6733"/></g><path fill-rule="evenodd" clip-rule="evenodd" d="M7.996 11.167a.5.5 0 0 1-.5-.5V8a.5.5 0 0 1 1 0v2.667a.5.5 0 0 1-.5.5zM8 6.136a.669.669 0 0 1-.67-.667c0-.368.294-.666.662-.666H8a.666.666 0 1 1 0 1.333z" fill="#FC6733"/></svg>
